X:1
T:Title
%%score { 1 | 2 }
L:1/8
M:4/4
K:Eb
V:1 treble nm="Grand Piano"
V:2 bass 
V:1
 z4 z2[Q:1/4=100] E2 | [Ec]3 [Ec] [F_d]>[Fd] [EA]>[EB] | [Ec]6 [Ec]2 | c3 B A2 [DB]2 |[M:3/4] B6 | %5
[M:1/4] E2 |[M:4/4] [Ec]3 [Ec] [F_d]>[Fd] [EA]>[EB] | [Ec]6 [Ec]2 | [EB]3 [EB] [Dc]2 [DB]2 | %9
[M:3/4] B6 |[M:1/4] _d2 |[M:4/4] c>=B c4 [EA]2 | [FA]>[=EG] [FA]4 F2 | E>D Ec B3 A | %14
[M:3/4] [CA]6 |] %15
V:2
 z4 z2 E,2 | [A,,A,]3 [A,,A,] [_D,A,]>[D,A,] [C,A,]>[B,,G,] | [A,,A,]6 [A,,A,]2 | %3
 [E,A,E]3 [E,G,_D] [F,A,C]2 [B,,A,]2 |[M:3/4] [E,G,E]6 |[M:1/4] E,2 | %6
[M:4/4] [A,,A,]3 [A,,A,] [_D,A,]>[D,A,] [C,A,]>[B,,G,] | [A,,A,]6 [A,,A,]2 | %8
 [B,,G,]3 [B,,G,] [B,,A,]2 [B,,A,]2 |[M:3/4] [E,G,E]6 |[M:1/4] [E,G,E]2 | %11
[M:4/4] [A,E]>[A,D] [A,E]4 [C,A,]2 | [_D,A,]>[D,B,] [D,A,]4 [=D,A,=B,]2 | %13
 [E,A,C]>[=E,A,=B,] [_E,A,C][E,A,E] [E,G,D]3 [E,C] |[M:3/4] [A,,E,]6 |] %15

